public/editor-src/editor/icons/editor/wp-custom-shortcode.svg

<svg id="nc-wp-shortcode-element" viewBox="0 0 16 16">
    <g stroke="none" stroke-width="1" fill-rule="evenodd">
        <path
        d="M5,1 C5.55228475,1 6,1.5 6,2 C6,2.5 5.5,3 5,3 L5.007,2.999 L4.125,3 C3.45,3 3,3.49230769 3,4.23076923 L3,11.7692308 C3,12.5076923 3.45,13 4.125,13 L5,13 C5.5,13 6,13.4477153 6,14 C6,14.5128358 5.61395981,14.9355072 5.11662113,14.9932723 L5,15 L1,15 C0.487164161,15 0.0644928393,14.6139598 0.00672773133,14.1166211 L0,14 L0,2 C0,1.48716416 0.38604019,1.06449284 0.883378875,1.00672773 L1,1 L5,1 Z M15,1 L15.1166211,1.00672773 C15.6139598,1.06449284 16,1.48716416 16,2 L16,2 L16,14 L15.9932723,14.1166211 C15.9355072,14.6139598 15.5128358,15 15,15 L15,15 L11,15 L10.8833789,14.9932723 C10.3860402,14.9355072 10,14.5128358 10,14 C10,13.4477153 10.5,13 11,13 L11,13 L11.875,13 C12.55,13 13,12.5076923 13,11.7692308 L13,11.7692308 L13,4.23076923 C13,3.49230769 12.55,3 11.875,3 L11.875,3 L10.993,2.999 C10.5,3 10,2.5 10,2 C10,1.5 10.4477153,1 11,1 L11,1 L15,1 Z"
        fill="currentColor"
        fill-rule="nonzero"
        ></path>
    </g>
</svg>

<svg viewBox="0 0 16 16"><path fill="currentColor" fill-rule="nonzero" d="M5 1c.552 0 1 .5 1 1s-.5 1-1 1l.007-.001L4.125 3C3.45 3 3 3.492 3 4.23v7.54c0 .738.45 1.23 1.125 1.23H5c.5 0 1 .448 1 1a1 1 0 0 1-.883.993L5 15H1a1 1 0 0 1-.993-.883L0 14V2a1 1 0 0 1 .883-.993L1 1h4Zm10 0 .117.007A1 1 0 0 1 16 2v12l-.007.117A1 1 0 0 1 15 15h-4l-.117-.007A1 1 0 0 1 10 14c0-.552.5-1 1-1h.875C12.55 13 13 12.508 13 11.77V4.23C13 3.493 12.55 3 11.875 3l-.882-.001C10.5 3 10 2.5 10 2s.448-1 1-1h4Z"/></svg>
